X: 32884
T: Portree Bay
R: jig
M: 6/8
K: Amajor
|:Acee2e|efa fec|Acee2f|ecA B3|
Ace e2e|efa fec|ABc BeB|cAA A3:|
|:Aaa a2e|fea fec|Aaa agf|ecAB3|
Aaa a2e|fea fec|ABc BeB|cAA A3:|

